X:1
T: The Grumbling Rustic
C:
R:Jig
Q:180
K:D
M:6/8
L:1/16
A2|D2E2D2 A2F2A2|d2c2d2 A2F2D2|A2G2F2 F4E2|A2G2F2 F4E2|D2E2D2 A2F2A2|d2c2d2 A2F2D2|A2F2E2 E4B2|A2F2E2 E4A2|
D2E2D2 A2F2A2|d2c2d2 A2F2D2|A2G2F2 F4E2|A2G2F2 F4E2|D2E2D2 A2F2A2|d2c2d2 A2F2D2|A2F2E2 E4B2|A2F2E2 E4A2|
D2E2D2 d4d2|e2d2c2 d4B2|A2G2F2 F4E2|A2G2F2 F4E2|D2E2D2 d4d2|e2d2c2 d4B2|A2G2F2 F4E2|A2F2E2 E4A2|
D2E2D2 d4d2|e2d2c2 d4B2|A2G2F2 F4E2|A2G2F2 F4E2|e2d2c2 d2c2B2|c2B2A2 B2c2d2|A2F2E2 E4B2|A2F2E2E4||
